!!!!SEGMENT: pl-lzu--m-15111--001-013_noskowski-zygmunt--spiewnik-dla-dzieci-op-34-13-powitanie-wiosenki.krn
!!!cenid: 18xx:4710
!!!COM: Noskowski, Zygmunt
!!!COM-rismID: pe106604
!!!CDT: 1846/05/02-1909/07/23
!!!CNT: Polish
!!!GTL: Śpiewnik dla dzieci, op. 34
!!!OTL: 13. Powitanie wiosenki
!!!OMV: 013
!!!PDT: 1890
!!!AGN: Secular; Song; Children
!!!YEC: Copyright 2022 Narodowy Instytut Fryderyka Chopina (https://polishscores.org)
!!!YEM: License CC-BY-4.0 (https://creativecommons.org/licenses/by/4.0)
!!!SMS-siglum: PL-LŹu
!!!SMS-shelfmark: M 15111
!!!SMS-variant:
!!!SMS-altvar:
!!!SMS-shelfwork: 001-013 G
!!!NIFC-rismSourceID: 1001234040
!!!NIFC-rismChildID: 1001234040
!!!NIFC-islandoraID: pl-lzu:5455
!!!URL-pdf-islandora: https://repozytorium.nifc.pl/islandora/object/pl-lzu%3A5455/datastream/PDF/view
!!!URL-scan: https://polish.musicsources.pl/pl/lokalizacje/galeria/druki-muzyczne/23228/20 @EN{Scan on Polish Music Sources Website} @PL{Skany w portalu Dziedzictwo Muzyki Polskiej w otwartym dostępie}
!!!IIIF:
!!!ONB-nifc:
!!!AIN: 1 piano 1 vox
!!!key:
!!!OMD: Allegretto pastorale.
**kern	**kern	**dynam	**kern	**text	**dynam
*part2	*part2	*part2	*part1	*part1	*part1
*staff3	*staff2	*staff2,3	*staff1	*staff1	*staff1
*I"[Piano]	*I"[Piano]	*	*I"[Voice]	*	*
*I'pf	*I'pf	*	*I'V	*	*
*Ipiano	*Ipiano	*	*Ivox	*	*
*ICklav	*ICklav	*	*ICvox	*	*
*IGacomp	*IGacomp	*	*IGsolo	*	*
*clefF4	*clefG2	*	*clefG2	*	*
*k[f#]	*k[f#]	*	*k[f#]	*	*
*G:	*G:	*	*G:	*	*
*M3/4	*M3/4	*	*M3/4	*	*
=1	=1	=1	=1	=1	=1
!	!LO:TX:a:i:t=Niezbyt prędko.	!LO:DY:rj	!	!	!
[2.G\ [2.B [2.d	(8gg\L	p	2.r	.	.
.	8bb\	.	.	.	.
.	8ddd\	.	.	.	.
.	8ccc#X\	.	.	.	.
.	8ddd\	.	.	.	.
.	8ccc#\J	.	.	.	.
=2	=2	=2	=2	=2	=2
2.G\] 2.B] 2.d]	8ddd\L	.	2.r	.	.
.	8ccc#X\	.	.	.	.
.	8ddd\	.	.	.	.
.	8ccc#\	.	.	.	.
.	8ddd\	.	.	.	.
.	8eee\J	.	.	.	.
=3	=3	=3	=3	=3	=3
2G\ 2A 2d	8ccc#X\L	.	2.r	.	.
.	8aa\J	.	.	.	.
.	8cccn\L	.	.	.	.
.	16ddd\L	.	.	.	.
.	16ccc\JJ	.	.	.	.
4G\ 4c 4d	8bb\L	.	.	.	.
.	8aa\J	.	.	.	.
=4	=4	=4	=4	=4	=4
2.G\ 2.B 2.d	2bb\	.	2.r	.	.
.	4ddd\)	.	.	.	.
!!LO:LB:g=original
=5	=5	=5	=5	=5	=5
[2.G\ [2.c [2.d	(8dd\L	.	2.r	.	.
.	8ff#\	.	.	.	.
.	8aa\	.	.	.	.
.	8gg#X\	.	.	.	.
.	8aa\	.	.	.	.
.	8gg#\J	.	.	.	.
=6	=6	=6	=6	=6	=6
2.G\] 2.c] 2.d]	8aa\L	.	2.r	.	.
.	8gg#X\	.	.	.	.
.	8aa\	.	.	.	.
.	8bb\	.	.	.	.
.	8ggn\	.	.	.	.
.	8ee\J	.	.	.	.
=7	=7	=7	=7	=7	=7
2.G\ 2.A 2.d	8ff#\L	.	2.r	.	.
.	8gg#X\	<	.	.	.
.	8aa\	.	.	.	.
.	8bb\	.	.	.	.
.	8ccc#X\	.	.	.	.
.	8ddd\J	[	.	.	.
=8	=8	=8	=8	=8	=8
2G\ 2B 2d	8cccn\L	>	2.r	.	.
.	8bb\J	.	.	.	.
.	2gg\)	]]	.	.	.
4r	.	.	.	.	.
!!LO:PB:g=original
=9	=9	=9	=9	=9	=9
!	!LO:TX:c:i:t=legato	!	!LO:TX:a:i:t=simplice	!	!LO:DY:rj
4GG/	8g/L	.	8g/	Le-	p
.	8g/J	.	8g/	-ci	.
4G\ 4B	4d/ 4b	.	4b/	pli-	.
4G\ 4B	8d/L 8a	.	(8a/L	-szka	.
.	8g/J	.	8g/J)	.	.
=10	=10	=10	=10	=10	=10
4G\ 4c	8.d/L 8.a	.	8.a/	Z pod	.
.	16d/Jk	.	16d/	ka-	.
4G\ 4B	4d/ 4g	.	4g/	-my-	.
4r	4a/	.	4a,/	-czka:	.
=11	=11	=11	=11	=11	=11
4GG/	8.b\L	.	8.b\	Jak	.
.	16b\Jk	.	16b\	się	.
4G\ 4c	4e/ 4g 4cc	<	4cc\	ma-	<
4G\ 4c	8d/L 8f# 8b	.	(8b/L	-cie	.
.	8a/J	[[	8a/J)	.	[
=12	=12	=12	=12	=12	=12
4GG/	4ee\	.	4ee\	dzie-	.
4G\ 4B	4d/ 4g 4dd	.	4dd\	-ci!	.
4BB/	4r	.	4r	.	.
!!LO:LB:g=original
=13	=13	=13	=13	=13	=13
4D\	8.a/L	.	8.a/	Już	.
.	16cc/Jk	.	16cc\	przy-	.
4D\ 4A	4d/ 4f# 4cc	.	4cc\	-by-	.
8D\L	8d/L 8f# 8b	.	(8b/L	-ła	.
8c\J	8a/J	.	8a/J)	.	.
=14	=14	=14	=14	=14	=14
4G\ 4B	8.d/L 8.g	.	8.g/	Wio-	.
.	16a/Jk	.	16a/	-sna	.
4E\ 4B	4e/ 4g 4b	.	4b\	mi-	.
4BB\ 4G	4d/ 4g 4dd	.	4dd,\	-ła,	.
=15	=15	=15	=15	=15	=15
4AA/	8.d/L	.	8.d/	Już	.
.	16cc/Jk	.	16cc\	sło-	.
4D\ 4A	4d/ 4f# 4cc	.	4cc\	-ne-	.
4DD/	8c/L 8f# 8b	.	(8b/L	-czko	.
.	8a/J	.	8a/J)	.	.
=16	=16	=16	=16	=16	=16
4GG/	4b/	.	4b/	świe-	.
4G\ 4B	4d/ 4g	.	4g/	-ci!	.
4r	4r	.	4r	.	.
!!LO:LB:g=original
=17	=17	=17	=17	=17	=17
[2.G\ [2.B [2.d	(8gg\L	.	2.r	.	.
.	8bb\	.	.	.	.
.	8ddd\	.	.	.	.
.	8ccc#X\	.	.	.	.
.	8ddd\	.	.	.	.
.	8ccc#\J	.	.	.	.
=18	=18	=18	=18	=18	=18
2.G\] 2.B] 2.d]	8ddd\L	.	2.r	.	.
.	8ccc#X\	.	.	.	.
.	8ddd\	.	.	.	.
.	8ccc#\	.	.	.	.
.	8ddd\	.	.	.	.
.	8eee\J	.	.	.	.
=19	=19	=19	=19	=19	=19
2G\ 2A 2d	8ccc#X\L	.	2.r	.	.
.	8aa\J	.	.	.	.
.	8cccn\L	.	.	.	.
.	16ddd\L	.	.	.	.
.	16ccc\JJ	.	.	.	.
4G\ 4c 4d	8bb\L	.	.	.	.
.	8aa\J	.	.	.	.
=20	=20	=20	=20	=20	=20
2.G\ 2.B 2.d	2bb\	.	2.r	.	.
.	4ddd\)	.	.	.	.
!!LO:PB:g=original
=21	=21	=21	=21	=21	=21
[2.G\ [2.c [2.d	(8dd\L	.	2.r	.	.
.	8ff#\	.	.	.	.
.	8aa\	.	.	.	.
.	8gg#X\	.	.	.	.
.	8aa\	.	.	.	.
.	8gg#\J	.	.	.	.
=22	=22	=22	=22	=22	=22
2.G\] 2.c] 2.d]	8aa\L	.	2.r	.	.
.	8gg#X\	.	.	.	.
.	8aa\	.	.	.	.
.	8bb\	.	.	.	.
.	8ggn\	.	.	.	.
.	8ee\J	.	.	.	.
=23	=23	=23	=23	=23	=23
2.G\ 2.A 2.d	8ff#\L	.	2.r	.	.
.	8gg#X\	.	.	.	.
.	8aa\	.	.	.	.
.	8bb\	.	.	.	.
.	8ccc#X\	.	.	.	.
.	8ddd\J	.	.	.	.
=24	=24	=24	=24	=24	=24
2G\ 2B 2d	8cccn\L	.	2.r	.	.
.	8bb\J	.	.	.	.
.	2gg\)	.	.	.	.
4r	.	.	.	.	.
!!LO:LB:g=original
=25	=25	=25	=25	=25	=25
4EE/	8.b/L	mf	8.b\	Po-	mf
.	16b/Jk	.	16b\	-szły	.
4E\ 4c	4e/ 4a	.	4a/	rze-	.
4E\ 4A	8d#X/L 8g	.	(8g/L	-ki	.
.	8f#/J	.	8f#/J)	.	.
=26	=26	=26	=26	=26	=26
4EE/	8.g/L	.	8.g/	W kraj	.
.	16e/Jk	.	16e/	da-	.
4E\ 4F#	4d#X/ 4cc	.	4cc\	-le-	.
4E\ 4G	4e/ 4b	.	4b,\	-ki,	.
=27	=27	=27	=27	=27	=27
4C/	8.a/L	.	8.a/	Pły-	.
.	16g/Jk	.	16g/	-ną	.
4A\	4e/ 4f#	.	4f#/	het	.
4BB\ 4A	8e/L	.	(8e/L	do	.
.	8d#X/J 8f#	.	8f#/J)	.	.
=28	=28	=28	=28	=28	=28
*	*^	*	*	*	*
2E\	2g/	4r	.	2g/	mo-	.
.	.	4B\ 4e	.	.	.	.
4D\	4g#X/	4B\ 4e	.	4g#X/	-rza,	.
*	*v	*v	*	*	*	*
!!LO:LB:g=original
=29	=29	=29	=29	=29	=29
4C\ 4A	8.e/L 8.a	.	8.a/	A	.
.	16cc/Jk	.	16cc\	ja	.
4AA\ 4A	4e/ 4gn 4cc	.	4cc\	śpie-	.
(8D\L	(8d/L 8f# 8b	.	(8b/L	-wam,	.
8c\J)	8a/J)	.	8a/J)	.	.
=30	=30	=30	=30	=30	=30
4G\ 4B	8.d/L 8.g	>	8.g/	A	>
.	16a/Jk	.	16a/	ja	.
4E\ 4B	4e/ 4g 4b	.	4b\	le-	.
4BB\ 4G	4d/ 4g 4dd	]	4dd\	-cę,	]
=31	=31	=31	=31	=31	=31
4AA/	8.d/L	p	8.d/	Gdzie	p
.	16cc/Jk	.	16cc\	ta	.
4D\ 4A	4d/ 4f# 4cc	.	4cc\	ran-	.
4DD/	8c/L 8f# 8b	.	(8b/L	-na	.
.	8a/J	.	8a/J)	.	.
=32	=32	=32	=32	=32	=32
4GG/	4b/	.	4b/	zo-	.
4G\ 4B	4d/ 4g	.	4g/	-rza!	.
4r	4r	.	4r	.	.
!!LO:PB:g=original
=33	=33	=33	=33	=33	=33
[2.G\ [2.B [2.d	(8gg\L	.	2.r	.	.
.	8bb\	.	.	.	.
.	8ddd\	.	.	.	.
.	8ccc#X\	.	.	.	.
.	8ddd\	.	.	.	.
.	8ccc#\J	.	.	.	.
=34	=34	=34	=34	=34	=34
2.G\] 2.B] 2.d]	8ddd\L	.	2.r	.	.
.	8ccc#X\	.	.	.	.
.	8ddd\	.	.	.	.
.	8ccc#\	.	.	.	.
.	8ddd\	.	.	.	.
.	8eee\J	.	.	.	.
=35	=35	=35	=35	=35	=35
2G\ 2A 2d	8ccc#X\L	.	2.r	.	.
.	8aa\	.	.	.	.
.	8cccn\	.	.	.	.
.	16ddd\L	.	.	.	.
.	16ccc\JJ	.	.	.	.
4G\ 4c 4d	8bb\L	.	.	.	.
.	8aa\J	.	.	.	.
=36	=36	=36	=36	=36	=36
2G\ 2B 2d	8bb\L	.	2.r	.	.
.	8aa\J	.	.	.	.
.	4gg\)	.	.	.	.
4r	4r	.	.	.	.
==	==	==	==	==	==
*-	*-	*-	*-	*-	*-
!!!system-decoration: p1{p2}
!!!RDF**kern: > = above
!!!RDF**kern: < = below
!!!ENC: Andrzej Gręziak
!!!END: 2025-03-04
!!!ENC: Marta Lawrence
!!!END: 2025-03-20
